X: 220
T:Aux Bois De Norwich or Norwich Woods
% Nottingham Music Database
S:Bob McQuillen 19 July 1974, via Phil Rowe
M:6/8
K:G
Bc|"G"d2B GBc|"G"dge "D7"dBc|"G"d2B GFG|"Am"A2B "D7"cBc|
"G"d2B GBc|"G"dge dBd|"C"ege "D7"dBA|"G"BGG G::
Bd|"Em"e2B "Am"ABc|"Em"B2e efg|"Am"aba "Em"gfe|"Bm"fef dBd|
"Em"e2B "Am"ABc|"Em"Bee edc|"Bm"BAB dBd|"Em"e3 -e:|<end>
<start>
